chainCurrencyIcons/colored/43114-min.svg

<svg viewBox="0 0 128 128" fill="none" xmlns="http://www.w3.org/2000/svg"><g clip-path="url(#clip0_101_1965)"><rect width="128" height="128" rx="64" fill="#E84142"/><g clip-path="url(#clip1_101_1965)"><path d="M103.473 21.9574H24.4418V93.7872H103.473V21.9574Z" fill="white"/><path fill-rule="evenodd" clip-rule="evenodd" d="M127.957 64C127.957 99.2995 99.3231 127.915 64 127.915C28.6773 127.915 0.0426025 99.2995 0.0426025 64C0.0426025 28.7007 28.6773 0.085083 64 0.085083C99.3231 0.085083 127.957 28.7007 127.957 64ZM45.8763 89.4349H33.464C30.8558 89.4349 29.5674 89.4349 28.7819 88.9327C27.9334 88.383 27.4149 87.4723 27.3521 86.4672C27.3049 85.5413 27.9492 84.4104 29.2375 82.1493L59.8851 28.1647C61.1892 25.8722 61.8491 24.726 62.6818 24.3021C63.5774 23.8468 64.6458 23.8468 65.5414 24.3021C66.3741 24.726 67.034 25.8722 68.3381 28.1647L74.6386 39.1556L74.6707 39.2117C76.0792 41.671 76.7935 42.9182 77.1053 44.2271C77.4509 45.656 77.4509 47.1633 77.1053 48.5921C76.7911 49.911 76.0841 51.1672 74.6543 53.6637L58.5558 82.1023L58.5142 82.1751C57.0964 84.6547 56.3779 85.9115 55.382 86.8595C54.2979 87.8961 52.9938 88.6493 51.564 89.074C50.2599 89.4349 48.7988 89.4349 45.8763 89.4349ZM77.2216 89.4349H95.007C97.6309 89.4349 98.9509 89.4349 99.737 88.9174C100.585 88.3676 101.119 87.4408 101.167 86.4366C101.212 85.5404 100.582 84.4536 99.3469 82.324C99.3044 82.2515 99.2618 82.1777 99.2183 82.1026L90.3094 66.8723L90.2081 66.7008C88.9562 64.5852 88.3243 63.5169 87.5127 63.104C86.6176 62.6486 85.5641 62.6486 84.669 63.104C83.8519 63.5279 83.1921 64.6427 81.888 66.888L73.0108 82.1184L72.9804 82.1708C71.6809 84.4125 71.0314 85.5327 71.0783 86.4519C71.1411 87.457 71.6596 88.383 72.508 88.9327C73.2779 89.4349 74.5977 89.4349 77.2216 89.4349Z" fill="#E84142"/></g></g><defs><clipPath id="clip0_101_1965"><rect width="128" height="128" rx="64" fill="white"/></clipPath><clipPath id="clip1_101_1965"><rect width="128" height="128" fill="white"/></clipPath></defs></svg>

<svg xmlns="http://www.w3.org/2000/svg" fill="none" viewBox="0 0 128 128"><g clip-path="url(#a)"><rect width="128" height="128" fill="#E84142" rx="64"/><g clip-path="url(#b)"><path fill="#fff" d="M103.473 21.957H24.442v71.83h79.031z"/><path fill="#E84142" fill-rule="evenodd" d="M127.957 64c0 35.3-28.634 63.915-63.957 63.915S.043 99.299.043 64C.043 28.7 28.677.085 64 .085S127.957 28.701 127.957 64m-82.08 25.435H33.463c-2.608 0-3.897 0-4.682-.502a3.152 3.152 0 0 1-1.43-2.466c-.047-.926.597-2.057 1.886-4.318l30.647-53.984c1.304-2.293 1.964-3.439 2.797-3.863a3.164 3.164 0 0 1 2.86 0c.832.424 1.492 1.57 2.796 3.863l6.3 10.99.033.057c1.408 2.459 2.122 3.706 2.434 5.015a9.318 9.318 0 0 1 0 4.365c-.314 1.319-1.02 2.575-2.45 5.072l-16.1 28.438-.04.073c-1.419 2.48-2.137 3.737-3.133 4.685a9.372 9.372 0 0 1-3.818 2.214c-1.304.36-2.765.36-5.688.36m31.345 0h17.785c2.624 0 3.944 0 4.73-.518a3.143 3.143 0 0 0 1.43-2.48c.045-.897-.585-1.983-1.82-4.113l-.129-.221-8.909-15.23-.1-.172c-1.253-2.116-1.885-3.184-2.696-3.597a3.13 3.13 0 0 0-2.844 0c-.817.424-1.477 1.539-2.781 3.784l-8.877 15.23-.03.053c-1.3 2.241-1.95 3.362-1.903 4.28a3.18 3.18 0 0 0 1.43 2.482c.77.502 2.09.502 4.714.502" clip-rule="evenodd"/></g></g><defs><clipPath id="a"><rect width="128" height="128" fill="#fff" rx="64"/></clipPath><clipPath id="b"><path fill="#fff" d="M0 0h128v128H0z"/></clipPath></defs></svg>
